assets/img/components/backtotop-header.svg

<svg xmlns="http://www.w3.org/2000/svg" width="579" height="145" fill="none" viewBox="0 0 579 145"><path fill="#286ad8" d="M579 145C579 64.98 514.094.11 434.028.11L434 0v145z"/><path fill="#286ad8" d="M394.879 0c21.773 0 39.424 17.852 39.424 39.875V145H285V0zM0 145V0h72.335C112.467 0 145 32.46 145 72.5S112.467 145 72.335 145z"/><path fill="#286ad8" d="M182.424 145C160.651 145 143 127.148 143 105.125V0h145v145z"/><path fill="#5187df" fill-opacity=".7" d="M173.242 115.517c4.426.015 17.738.022 23.885.017.804.071 1.332.642 1.717 1.394.389.684.435 1.583.759 2.266.413.721 1.474 1.02 2.132 1.466.857.516 1.657 1.091 2.593 1.523.515.237 1.175.493 1.489 1.001.146.237.191.475.177.713-.02.33-.454.583-.684.756-.361.274-.666.572-.869.987-.102.205-.171.462-.05.656.288.461 1.441.015 1.832-.116.542-.182 1.092-.43 1.657-.531 2.405-.431 4.864-.795 7.023-1.95.306-.163.999-.425 1.084-.764.212-.842-2.267-.037-2.566.061-.535.189-1.111.178-1.669.259-1.235.214-2.957.57-4.177.611-.615.064-.91-.41-.767-1.023.168-.767.874-1.238.824-2.044-.095-1.636.418-3.456.389-5.109-.087-2.064.769-4.028.831-6.069.054-1.754.302-3.508.091-5.249-.187-1.545-.773-3.379-.651-4.935.029-.377.089-.61.192-.97.428-1.196.023-2.455.028-3.635.004-1.478.264-2.095-.673-2.27s-3.564.083-4.577.016c-1.418.038-2.864-.032-4.155.58-1.604.772-2.856 2.168-3.911 3.556-.573.926-1.738 1.214-2.327 2.118-.596.832-.108 1.759-.074 2.673.037 2.817-.932 2.398-2.723 3.855-.774.629-1.813.75-2.772.772-.761.018-1.816.143-2.553-.051-.732-.192-1.388-.734-2.176-.734-1.121-.13-2.827-.076-4.031.165-.852.187-1.538.346-1.565 1.315-.01.854 1.063 1.726.888 2.603-.384 1.548-2.327 2.501-3.568 3.268-.321.173-.838.424-1.054.732-.36.515-.28 2.084.001 2.087M334.873 106h-35.43c-1.971 0-3.285 1.2-3.285 3s1.314 3 3.285 3h35.43c1.971 0 3.285-1.2 3.285-3s-1.314-3-3.285-3M269.874 106h-35.431c-1.971 0-3.285 1.2-3.285 3s1.314 3 3.285 3h35.431c1.97 0 3.284-1.2 3.284-3s-1.314-3-3.284-3"/><path fill="#1545bb" d="M444.36 95c3.664 0 6.954 1.58 9.268 4.089q.374.345.72.72.374.345.72.72.374.345.72.719.374.346.72.721.373.345.72.719.374.346.72.721.374.346.72.72.374.345.72.72.374.345.719.719.376.346.721.721.374.346.72.72.373.345.72.72.374.345.72.719.375.346.72.721.373.346.72.72.374.344.72.719.375.346.72.72.374.346.72.721.374.345.72.72.374.345.72.72.374.346.72.72.373.346.72.72.373.345.72.719.374.346.72.721.375.346.72.72.374.345.72.72.374.345.72.72.375.346.72.72.373.346.72.72.373.345.72.719.374.346.72.721.374.346.72.72.374.345.72.72.374.345.719.719.376.346.721.721.374.346.72.72.373.345.72.72.374.345.72.72.375.346.72.72.373.346.72.72.374.344.72.719.375.346.72.72.374.346.72.721.374.345.72.72.374.345.72.72.374.346.72.72.373.346.72.72.373.345.72.719.374.346.72.721.375.346.72.72.374.345.72.72.374.345.72.72.375.346.72.72.373.346.72.72.373.345.72.719.374.346.72.721.374.346.72.72.374.345.72.72.374.345.719.719.376.346.721.721.374.346.72.72.373.345.72.72.374.345.72.72.287.267.558.551H398.919a11 11 0 0 1-.399-.412q-.375-.346-.721-.72a13 13 0 0 1-.719-.72q-.375-.345-.721-.72a13 13 0 0 1-.719-.72q-.375-.346-.721-.721-.374-.345-.72-.719-.374-.346-.72-.72a13 13 0 0 1-.719-.72q-.375-.346-.721-.721-.373-.345-.72-.719a13 13 0 0 1-.719-.72q-.375-.346-.72-.72-.375-.345-.721-.72-.373-.346-.72-.72a13 13 0 0 1-.719-.72q-.375-.346-.721-.721-.374-.345-.72-.719a13 13 0 0 1-.719-.72q-.375-.346-.72-.72-.375-.346-.721-.72-.373-.346-.72-.72a13 13 0 0 1-.719-.72q-.374-.345-.72-.72-.375-.345-.721-.72a13 13 0 0 1-.719-.72q-.375-.346-.721-.721-.374-.345-.719-.719-.375-.345-.721-.72a13 13 0 0 1-.719-.72q-.375-.346-.721-.721-.374-.345-.72-.719-.374-.346-.72-.72a13 13 0 0 1-.719-.72q-.375-.346-.721-.721-.373-.345-.72-.719a13 13 0 0 1-.719-.72q-.375-.346-.72-.72-.375-.345-.721-.72a12.8 12.8 0 0 1-4.126-9.429c0-7.068 5.675-12.799 12.674-12.799z" opacity=".4" style="mix-blend-mode:multiply"/><path fill="#5187df" d="M444.327 95h-64.654C372.674 95 367 100.73 367 107.798s5.674 12.798 12.673 12.798h64.654c6.999 0 12.673-5.73 12.673-12.798S451.326 95 444.327 95"/><path fill="#1545bb" d="M438.843 104.908h-37.789c-2.101 0-3.503 1.287-3.503 3.216s1.402 3.216 3.503 3.216h37.789c2.102 0 3.503-1.286 3.503-3.216 0-1.929-1.401-3.216-3.503-3.216M384.753 107.097l-4.91 4.898q-.347.345-.881.345-.536 0-.881-.345a1.2 1.2 0 0 1-.347-.88q0-.532.347-.879l5.79-5.776q.378-.377.882-.377.503 0 .881.377l5.791 5.776q.346.347.346.879 0 .534-.346.88-.347.345-.881.345-.536 0-.882-.345z"/></svg>

<svg width="579" height="145" viewBox="0 0 579 145" fill="none" xmlns="http://www.w3.org/2000/svg">
<path d="M579 145C579 64.9792 514.094 0.109528 434.028 0.109528L434 0V145L579 145Z" fill="#286AD8"/>
<path d="M394.879 -7.62939e-05C416.652 -7.62939e-05 434.303 17.8524 434.303 39.875V145L285 145V0L394.879 -7.62939e-05Z" fill="#286AD8"/>
<path d="M0 145L0 -0.000152588L72.3354 -0.000152588C112.467 -0.000152588 145 32.4592 145 72.4999C145 112.541 112.467 145 72.3354 145L0 145Z" fill="#286AD8"/>
<path d="M182.424 145C160.651 145 143 127.148 143 105.125V0H288V145H182.424Z" fill="#286AD8"/>
<path d="M173.242 115.517C177.668 115.532 190.98 115.539 197.127 115.534C197.931 115.605 198.459 116.176 198.844 116.928C199.233 117.612 199.279 118.511 199.603 119.194C200.016 119.915 201.077 120.214 201.735 120.66C202.592 121.176 203.392 121.751 204.328 122.183C204.843 122.42 205.503 122.676 205.817 123.184C205.963 123.421 206.008 123.659 205.994 123.897C205.974 124.227 205.54 124.48 205.31 124.653C204.949 124.927 204.644 125.225 204.441 125.64C204.339 125.845 204.27 126.102 204.391 126.296C204.679 126.757 205.832 126.311 206.223 126.18C206.765 125.998 207.315 125.75 207.88 125.649C210.285 125.218 212.744 124.854 214.903 123.699C215.209 123.536 215.902 123.274 215.987 122.935C216.199 122.093 213.72 122.898 213.421 122.996C212.886 123.185 212.31 123.174 211.752 123.255C210.517 123.469 208.795 123.825 207.575 123.866C206.96 123.93 206.665 123.456 206.808 122.843C206.976 122.076 207.682 121.605 207.632 120.799C207.537 119.163 208.05 117.343 208.021 115.69C207.934 113.626 208.79 111.662 208.852 109.621C208.906 107.867 209.154 106.113 208.943 104.372C208.756 102.827 208.17 100.993 208.292 99.4374C208.321 99.0597 208.381 98.8269 208.484 98.4663C208.912 97.2708 208.507 96.0121 208.512 94.8321C208.516 93.3539 208.776 92.7365 207.839 92.5619C206.902 92.3872 204.275 92.6448 203.262 92.5776C201.844 92.6161 200.398 92.5459 199.107 93.1584C197.503 93.9298 196.251 95.3264 195.196 96.7141C194.623 97.6404 193.458 97.9281 192.869 98.8318C192.273 99.6643 192.761 100.591 192.795 101.505C192.832 104.322 191.863 103.903 190.072 105.36C189.298 105.989 188.259 106.11 187.3 106.132C186.539 106.15 185.484 106.275 184.747 106.081C184.015 105.889 183.359 105.347 182.571 105.347C181.45 105.217 179.744 105.271 178.54 105.512C177.688 105.699 177.002 105.858 176.975 106.827C176.965 107.681 178.038 108.553 177.863 109.43C177.479 110.978 175.536 111.931 174.295 112.698C173.974 112.871 173.457 113.122 173.241 113.43C172.881 113.945 172.961 115.514 173.242 115.517Z" fill="#5187DF" fill-opacity="0.7"/>
<path d="M334.873 106H299.443C297.472 106 296.158 107.2 296.158 109C296.158 110.8 297.472 112 299.443 112H334.873C336.844 112 338.158 110.8 338.158 109C338.158 107.2 336.844 106 334.873 106Z" fill="#5187DF" fill-opacity="0.7"/>
<path d="M269.874 106H234.443C232.472 106 231.158 107.2 231.158 109C231.158 110.8 232.472 112 234.443 112H269.874C271.844 112 273.158 110.8 273.158 109C273.158 107.2 271.844 106 269.874 106Z" fill="#5187DF" fill-opacity="0.7"/>
<g style="mix-blend-mode:multiply" opacity="0.4">
<path d="M444.36 95C448.024 95 451.314 96.5791 453.628 99.0889C453.877 99.3195 454.117 99.5587 454.348 99.8086C454.597 100.039 454.838 100.279 455.068 100.529C455.317 100.76 455.558 100.998 455.788 101.248C456.038 101.479 456.277 101.719 456.508 101.969C456.757 102.199 456.997 102.439 457.228 102.688C457.477 102.919 457.718 103.159 457.948 103.409C458.197 103.64 458.438 103.879 458.668 104.129C458.917 104.359 459.157 104.599 459.388 104.849C459.637 105.079 459.877 105.319 460.107 105.568C460.357 105.799 460.598 106.039 460.828 106.289C461.078 106.52 461.317 106.759 461.548 107.009C461.797 107.239 462.037 107.479 462.268 107.729C462.517 107.959 462.758 108.198 462.988 108.448C463.238 108.679 463.478 108.919 463.708 109.169C463.957 109.4 464.197 109.639 464.428 109.889C464.677 110.119 464.918 110.358 465.148 110.608C465.398 110.839 465.638 111.078 465.868 111.328C466.118 111.559 466.357 111.799 466.588 112.049C466.837 112.279 467.077 112.519 467.308 112.769C467.557 112.999 467.798 113.239 468.028 113.489C468.277 113.72 468.518 113.959 468.748 114.209C468.997 114.44 469.237 114.679 469.468 114.929C469.717 115.159 469.957 115.399 470.188 115.648C470.437 115.879 470.678 116.119 470.908 116.369C471.158 116.6 471.398 116.839 471.628 117.089C471.877 117.319 472.117 117.559 472.348 117.809C472.597 118.039 472.838 118.279 473.068 118.529C473.318 118.76 473.558 118.999 473.788 119.249C474.037 119.48 474.277 119.719 474.508 119.969C474.757 120.199 474.997 120.439 475.228 120.688C475.477 120.919 475.718 121.159 475.948 121.409C476.197 121.64 476.438 121.879 476.668 122.129C476.917 122.359 477.157 122.599 477.388 122.849C477.637 123.079 477.877 123.319 478.107 123.568C478.357 123.799 478.598 124.039 478.828 124.289C479.078 124.52 479.317 124.759 479.548 125.009C479.797 125.239 480.037 125.479 480.268 125.729C480.517 125.959 480.758 126.199 480.988 126.449C481.238 126.68 481.478 126.919 481.708 127.169C481.957 127.4 482.197 127.639 482.428 127.889C482.677 128.119 482.918 128.358 483.148 128.608C483.398 128.839 483.638 129.078 483.868 129.328C484.118 129.559 484.357 129.799 484.588 130.049C484.837 130.279 485.077 130.519 485.308 130.769C485.557 130.999 485.798 131.239 486.028 131.489C486.277 131.72 486.518 131.959 486.748 132.209C486.997 132.44 487.237 132.679 487.468 132.929C487.717 133.159 487.957 133.399 488.188 133.648C488.437 133.879 488.678 134.119 488.908 134.369C489.158 134.6 489.398 134.839 489.628 135.089C489.877 135.319 490.117 135.559 490.348 135.809C490.597 136.039 490.838 136.279 491.068 136.529C491.318 136.76 491.558 136.999 491.788 137.249C492.037 137.48 492.277 137.719 492.508 137.969C492.757 138.199 492.997 138.439 493.228 138.688C493.477 138.919 493.718 139.159 493.948 139.409C494.197 139.64 494.438 139.879 494.668 140.129C494.917 140.359 495.157 140.599 495.388 140.849C495.637 141.079 495.877 141.319 496.107 141.568C496.357 141.799 496.598 142.039 496.828 142.289C497.078 142.52 497.317 142.759 497.548 143.009C497.797 143.239 498.037 143.479 498.268 143.729C498.517 143.959 498.758 144.199 498.988 144.449C499.18 144.627 499.365 144.811 499.546 145H398.919C398.783 144.866 398.649 144.729 398.52 144.588C398.27 144.357 398.029 144.118 397.799 143.868C397.55 143.638 397.31 143.398 397.08 143.148C396.83 142.918 396.59 142.678 396.359 142.428C396.11 142.197 395.87 141.958 395.64 141.708C395.39 141.477 395.15 141.237 394.919 140.987C394.67 140.757 394.429 140.517 394.199 140.268C393.95 140.037 393.71 139.798 393.479 139.548C393.23 139.317 392.99 139.078 392.76 138.828C392.51 138.597 392.27 138.357 392.039 138.107C391.79 137.877 391.55 137.637 391.319 137.388C391.07 137.157 390.83 136.918 390.6 136.668C390.35 136.437 390.11 136.198 389.88 135.948C389.63 135.718 389.39 135.478 389.159 135.228C388.91 134.997 388.67 134.758 388.439 134.508C388.19 134.277 387.95 134.038 387.72 133.788C387.47 133.557 387.23 133.317 386.999 133.067C386.75 132.837 386.509 132.597 386.279 132.348C386.03 132.117 385.79 131.878 385.56 131.628C385.31 131.397 385.07 131.158 384.84 130.908C384.59 130.677 384.35 130.438 384.119 130.188C383.87 129.957 383.63 129.718 383.399 129.468C383.15 129.237 382.91 128.998 382.68 128.748C382.431 128.518 382.19 128.278 381.96 128.028C381.71 127.798 381.47 127.558 381.239 127.308C380.99 127.077 380.75 126.838 380.52 126.588C380.27 126.357 380.029 126.117 379.799 125.867C379.55 125.637 379.31 125.398 379.08 125.148C378.83 124.918 378.59 124.678 378.359 124.428C378.11 124.197 377.87 123.958 377.64 123.708C377.39 123.477 377.15 123.237 376.919 122.987C376.67 122.757 376.429 122.517 376.199 122.268C375.95 122.037 375.71 121.798 375.479 121.548C375.23 121.317 374.99 121.078 374.76 120.828C374.51 120.597 374.27 120.357 374.039 120.107C373.79 119.877 373.55 119.637 373.319 119.388C373.07 119.157 372.83 118.918 372.6 118.668C372.35 118.437 372.11 118.198 371.88 117.948C371.63 117.718 371.39 117.478 371.159 117.228C368.63 114.888 367.033 111.536 367.033 107.799C367.033 100.731 372.708 95.0001 379.707 95H444.36Z" fill="#1545BB"/>
</g>
<path d="M444.327 95H379.673C372.674 95 367 100.73 367 107.798C367 114.866 372.674 120.596 379.673 120.596H444.327C451.326 120.596 457 114.866 457 107.798C457 100.73 451.326 95 444.327 95Z" fill="#5187DF"/>
<path d="M438.843 104.908H401.054C398.953 104.908 397.551 106.195 397.551 108.124C397.551 110.054 398.953 111.34 401.054 111.34H438.843C440.945 111.34 442.346 110.054 442.346 108.124C442.346 106.195 440.945 104.908 438.843 104.908Z" fill="#1545BB"/>
<path d="M384.753 107.097L379.843 111.995C379.612 112.225 379.318 112.34 378.962 112.34C378.605 112.34 378.311 112.225 378.081 111.995C377.85 111.764 377.734 111.471 377.734 111.115C377.734 110.76 377.85 110.467 378.081 110.236L383.871 104.46C384.123 104.209 384.417 104.083 384.753 104.083C385.088 104.083 385.382 104.209 385.634 104.46L391.425 110.236C391.656 110.467 391.771 110.76 391.771 111.115C391.771 111.471 391.656 111.764 391.425 111.995C391.194 112.225 390.9 112.34 390.544 112.34C390.187 112.34 389.893 112.225 389.662 111.995L384.753 107.097Z" fill="#1545BB"/>
</svg>
